gama.ui.shared/icons_svg/light/overlays/status.clock.svg

<?xml version="1.0" encoding="UTF-8" standalone="no"?>
<!DOCTYPE svg PUBLIC "-//W3C//DTD SVG 1.1//EN" "http://www.w3.org/Graphics/SVG/1.1/DTD/svg11.dtd">
<svg xmlns="http://www.w3.org/2000/svg" xmlns:dc="http://purl.org/dc/elements/1.1/" version="1.1" xmlns:xl="http://www.w3.org/1999/xlink" viewBox="-50.67104 -3211.58 24.75 24.75" width="24.75" height="24.75">
  <defs/>
  <g id="SOURCES" stroke-dasharray="none" stroke-opacity="1" stroke="none" fill="none" fill-opacity="1">
    <title>SOURCES</title>
    <g id="SOURCES_Light">
      <title>Light</title>
      <g id="Graphic_12494">
        <circle cx="-38.296043" cy="-3199.205" r="8.00000702080161" fill="white"/>
        <circle cx="-38.296043" cy="-3199.205" r="8.00000702080161" stroke="black" stroke-linecap="round" stroke-linejoin="round" stroke-width="0"/>
      </g>
      <g id="Graphic_12495"/>
      <g id="Group_9591">
        <title>clock</title>
        <g id="Graphic_9592">
          <path d="M -38.296043 -3191.205 C -42.712043 -3191.205 -46.29604 -3194.789 -46.29604 -3199.205 C -46.29604 -3203.621 -42.712043 -3207.205 -38.296043 -3207.205 C -33.880043 -3207.205 -30.296043 -3203.621 -30.296043 -3199.205 C -30.296043 -3194.789 -33.880043 -3191.205 -38.296043 -3191.205 Z M -38.296043 -3192.005 C -34.320043 -3192.005 -31.096043 -3195.229 -31.096043 -3199.205 C -31.096043 -3203.181 -34.320043 -3206.405 -38.296043 -3206.405 C -42.272043 -3206.405 -45.496043 -3203.181 -45.496043 -3199.205 C -45.496043 -3195.229 -42.272043 -3192.005 -38.296043 -3192.005 Z M -35.264043 -3197.533 C -35.088043 -3197.405 -35.040043 -3197.157 -35.168043 -3196.973 C -35.296043 -3196.797 -35.544043 -3196.749 -35.728043 -3196.877 L -38.528043 -3198.877 C -38.600043 -3198.933 -38.656043 -3199.005 -38.680043 -3199.101 L -39.880043 -3203.501 C -39.936043 -3203.717 -39.816043 -3203.933 -39.600043 -3203.989 C -39.384043 -3204.045 -39.168043 -3203.925 -39.112043 -3203.709 L -37.952043 -3199.445 L -35.264043 -3197.525 Z" fill="#5c75a1"/>
        </g>
      </g>
    </g>
  </g>
</svg>

<svg height="24.75" viewBox="-50.671 -3211.58 24.75 24.75" width="24.75" xmlns="http://www.w3.org/2000/svg"><g fill="none"><circle cx="-38.296" cy="-3199.205" fill="#fff" r="8"/><circle cx="-38.296" cy="-3199.205" r="8"/><path d="m-38.296043-3191.205c-4.416 0-7.999997-3.584-7.999997-8s3.583997-8 7.999997-8 8 3.584 8 8-3.584 8-8 8zm0-.8c3.976 0 7.2-3.224 7.2-7.2s-3.224-7.2-7.2-7.2-7.2 3.224-7.2 7.2 3.224 7.2 7.2 7.2zm3.032-5.528c.176.128.224.376.096.56-.128.176-.376.224-.56.096l-2.8-2c-.072-.056-.128-.128-.152-.224l-1.2-4.4c-.056-.216.064-.432.28-.488s.432.064.488.28l1.16 4.264 2.688 1.92z" fill="#5c75a1"/></g></svg>
